icons/home_fill.svg

<svg width="48" height="48" viewBox="0 0 48 48" fill="none" xmlns="http://www.w3.org/2000/svg">
<path d="M24.507 10.1381C24.1941 9.95398 23.8059 9.95398 23.493 10.1381L5.63105 20.6451L6.64509 22.369L24 12.1602L41.3549 22.369L42.369 20.6451L36 16.8986V12C36 11.4477 35.5523 11 35 11H32C31.4477 11 31 11.4477 31 12V13.9575L24.507 10.1381Z" fill="black"/>
<path fill-rule="evenodd" clip-rule="evenodd" d="M24 14L10 22V36H5C4.44772 36 4 36.4477 4 37C4 37.5523 4.44772 38 5 38H41C41.5523 38 42 37.5523 42 37C42 36.4477 41.5523 36 41 36H38V22L24 14ZM28 36V25H34V36H28ZM25 25H14V31H25V25Z" fill="black"/>
</svg>

<svg
  xmlns="http://www.w3.org/2000/svg"
  width="24"
  height="24"
  viewBox="0 0 24 24"
  fill="none"
  stroke="currentColor"
  stroke-width="2"
  stroke-linecap="round"
  stroke-linejoin="round"
>
  <path d="M24.507 10.138a1 1 0 0 0-1.014 0L5.631 20.645l1.014 1.724L24 12.16 41.355 22.37l1.014-1.724L36 16.9V12a1 1 0 0 0-1-1h-3a1 1 0 0 0-1 1v1.957z" />
  <path
    fill-rule="evenodd"
    d="m24 14-14 8v14H5a1 1 0 1 0 0 2h36a1 1 0 1 0 0-2h-3V22zm4 22V25h6v11zm-3-11H14v6h11z"
    clip-rule="evenodd"
  />
</svg>
